lib/svg/repo-push.svg

<svg xmlns="http://www.w3.org/2000/svg" width="12" height="16" viewBox="0 0 12 16"><path d="M4 3H3V2h1v1zM3 5h1V4H3v1zm4 0L4 9h2v7h2V9h2L7 5zm4-5H1C.45 0 0 .45 0 1v12c0 .55.45 1 1 1h4v-1H1v-2h4v-1H2V1h9.02L11 10H9v1h2v2H9v1h2c.55 0 1-.45 1-1V1c0-.55-.45-1-1-1z"/></svg>

<?xml version="1.0" encoding="UTF-8" standalone="no"?>
<svg width="12px" height="16px" viewBox="0 0 12 16" version="1.1" xmlns="http://www.w3.org/2000/svg" xmlns:xlink="http://www.w3.org/1999/xlink">
    <!-- Generator: Sketch 3.8.3 (29802) - http://www.bohemiancoding.com/sketch -->
    <title>repo-push</title>
    <desc>Created with Sketch.</desc>
    <defs></defs>
    <g id="Octicons" stroke="none" stroke-width="1" fill="none" fill-rule="evenodd">
        <g id="repo-push" fill="#000000">
            <path d="M4,3 L3,3 L3,2 L4,2 L4,3 L4,3 Z M3,5 L4,5 L4,4 L3,4 L3,5 L3,5 Z M7,5 L4,9 L6,9 L6,16 L8,16 L8,9 L10,9 L7,5 L7,5 Z M11,0 L1,0 C0.45,0 0,0.45 0,1 L0,13 C0,13.55 0.45,14 1,14 L5,14 L5,13 L1,13 L1,11 L5,11 L5,10 L2,10 L2,1 L11.02,1 L11,10 L9,10 L9,11 L11,11 L11,13 L9,13 L9,14 L11,14 C11.55,14 12,13.55 12,13 L12,1 C12,0.45 11.55,0 11,0 L11,0 Z" id="Shape"></path>
        </g>
    </g>
</svg>
